X:379
T:Lord Mayor's Delight,The. (p)1698.PLFD.379
M:3/4
L:1/4
Q:3/4=50
S:Playford, Dancing Master,9th Ed,2nd Supp.,1698.
O:England
H:1698.
Z:Chris Partington.
K:F
agf|cfe|fba|g/f/g/a/g|agf|c/d/ec|f/e/d/g/e|f3:|
|:cBA|cBA|cga|b2g|a/g/f/a/g/f/|g/f/e/d/e/c/|dge|f3:|
